X: 1
T: Jazz-Infused Classical
M: 4/4
L: 1/4
Q: 1/4=130
K: C
V:1
%%MIDI gchord b2b2
%%MIDI program 1    % Acoustic Grand Piano for melody
%%MIDI chordprog 27 % Electric Jazz Guitar for chords
%%MIDI bassprog 45  % Pizzicato Strings for bass
| "C7" E2 G2 | "F7" A3 F2 | "G7" B2 G2 | "C7" E4 | % measure 1-4
%%MIDI program 5    % Electric Piano for melody
%%MIDI chordprog 27 % Electric Jazz Guitar for chords
%%MIDI bassprog 45  % Pizzicato Strings for bass
| "Dm7" D2 F2 | "G7" G3 B2 | "C7" E3 G2 | "A7" A3 c2 | % measure 5-8
%%MIDI program 5    % Electric Piano for melody
%%MIDI chordprog 27 % Electric Jazz Guitar for chords
%%MIDI bassprog 32  % Acoustic Bass for bass
| "Dm7" D2 E2 | "G7" F3 D2 | "C9" E3 G2 | "A7b9" B2 ^C2 | % measure 9-12
%%MIDI program 1    % Acoustic Grand Piano for melody
%%MIDI chordprog 27 % Electric Jazz Guitar for chords
%%MIDI bassprog 45  % Pizzicato Strings for bass
| "F7" A2 C2 | "G7" B3 G2 | "C7" E3 C2 | "G7sus4" D4 | % measure 13-16